X:3152
T:Jour d't - scottish/schottische/schottisch
O:england
C:Frdric Paris
N:please mail errors to: simon.wascher@chello.at
M:2/4
L:1/16
K:G
BdcA B2G2|BdcA G3D|EFG2- GAB2|cBAc B2G2|
BdcA B2G2|BdcA G3D|EFG2- GAB2|cBAFG4||
efef e3f|efefd4|edc2- cBAB|cBAc B2G2|
efef e3f|efefd4|edc2- cBAB|cBAFG4|]
